packages/foundations/assets/icons/functional/images/food/beverage.svg

<svg xmlns="http://www.w3.org/2000/svg" width="32" height="32" fill="none"><path fill="#1A1C1F" fill-rule="evenodd" d="M18.021 2.152c-.397.164-.599.314-.85.631-.347.438-.424.792-.424 1.931 0 1.93-.062 2.153-1.281 4.619-1.042 2.109-1.058 2.155-.859 2.587.178.384.458.56.892.56.314 0 .552-.105.738-.326.179-.212 1.761-3.376 2.007-4.012.349-.904.529-2.076.529-3.435V4h1.96l.029 1.187c.048 1.976.168 2.371 1.551 5.148.544 1.093 1.051 2.181 1.126 2.417.302.956.294.751.294 8.295V28l-2.093.001c-1.916.001-2.112.01-2.309.099a.97.97 0 0 0-.571.887c0 .237.097.486.26.667.322.357.44.373 2.71.372 1.087 0 2.116-.023 2.287-.051a2.03 2.03 0 0 0 1.546-1.163l.17-.359V13.68l-.123-.56c-.217-.988-.419-1.479-1.481-3.6-1.317-2.633-1.299-2.572-1.354-4.533-.034-1.245-.05-1.418-.155-1.689a2.02 2.02 0 0 0-.727-.928c-.444-.315-.625-.343-2.183-.342-1.328.001-1.403.007-1.689.124M7.773 16.057c-.768.184-1.42.922-1.509 1.706-.048.419 1.681 10.663 1.869 11.075.168.371.563.784.903.945.485.229.801.251 3.284.233 2.304-.017 2.322-.018 2.64-.145.438-.175.979-.713 1.132-1.124.171-.464 1.847-10.677 1.801-10.981a2.06 2.06 0 0 0-1.136-1.565l-.355-.174-4.214-.009c-2.354-.005-4.303.012-4.415.039m8.12 1.991c0 .041-1.602 9.714-1.628 9.832l-.027.12H9.94l-.331-1.933a82 82 0 0 1-.33-2c.001-.052.296-.067 1.294-.067.712 0 1.379-.024 1.482-.053.214-.059.551-.38.635-.604.144-.381-.007-.877-.347-1.136l-.201-.154-1.601-.026L8.94 22l-.333-1.92c-.184-1.056-.335-1.95-.337-1.987-.003-.052.793-.066 3.81-.066 2.097 0 3.813.009 3.813.021"/></svg>

<svg width="32" height="32" viewBox="0 0 32 32" fill="none" xmlns="http://www.w3.org/2000/svg"><path d="M18.021 2.152 C 17.624 2.316,17.422 2.466,17.171 2.783 C 16.824 3.221,16.747 3.575,16.747 4.714 C 16.747 6.644,16.685 6.867,15.466 9.333 C 14.424 11.442,14.408 11.488,14.607 11.920 C 14.785 12.304,15.065 12.480,15.499 12.480 C 15.813 12.480,16.051 12.375,16.237 12.154 C 16.416 11.942,17.998 8.778,18.244 8.142 C 18.593 7.238,18.773 6.066,18.773 4.707 L 18.773 4.000 19.753 4.000 L 20.733 4.000 20.762 5.187 C 20.810 7.163,20.930 7.558,22.313 10.335 C 22.857 11.428,23.364 12.516,23.439 12.752 C 23.741 13.708,23.733 13.503,23.733 21.047 L 23.733 28.000 21.640 28.001 C 19.724 28.002,19.528 28.011,19.331 28.100 C 18.983 28.258,18.760 28.604,18.760 28.987 C 18.760 29.224,18.857 29.473,19.020 29.654 C 19.342 30.011,19.460 30.027,21.730 30.026 C 22.817 30.026,23.846 30.003,24.017 29.975 C 24.712 29.861,25.262 29.447,25.563 28.812 L 25.733 28.453 25.733 21.067 L 25.733 13.680 25.610 13.120 C 25.393 12.132,25.191 11.641,24.129 9.520 C 22.812 6.887,22.830 6.948,22.775 4.987 C 22.741 3.742,22.725 3.569,22.620 3.298 C 22.473 2.921,22.230 2.610,21.893 2.370 C 21.449 2.055,21.268 2.027,19.710 2.028 C 18.382 2.029,18.307 2.035,18.021 2.152 M7.773 16.057 C 7.005 16.241,6.353 16.979,6.264 17.763 C 6.216 18.182,7.945 28.426,8.133 28.838 C 8.301 29.209,8.696 29.622,9.036 29.783 C 9.521 30.012,9.837 30.034,12.320 30.016 C 14.624 29.999,14.642 29.998,14.960 29.871 C 15.398 29.696,15.939 29.158,16.092 28.747 C 16.263 28.283,17.939 18.070,17.893 17.766 C 17.789 17.075,17.377 16.506,16.757 16.201 L 16.402 16.027 12.188 16.018 C 9.834 16.013,7.885 16.030,7.773 16.057 M15.893 18.048 C 15.893 18.089,14.291 27.762,14.265 27.880 L 14.238 28.000 12.089 28.000 L 9.940 28.000 9.609 26.067 C 9.426 25.003,9.278 24.103,9.279 24.067 C 9.280 24.015,9.575 24.000,10.573 24.000 C 11.285 24.000,11.952 23.976,12.055 23.947 C 12.269 23.888,12.606 23.567,12.690 23.343 C 12.834 22.962,12.683 22.466,12.343 22.207 L 12.142 22.053 10.541 22.027 L 8.940 22.000 8.607 20.080 C 8.423 19.024,8.272 18.130,8.270 18.093 C 8.267 18.041,9.063 18.027,12.080 18.027 C 14.177 18.027,15.893 18.036,15.893 18.048 " fill="#1A1C1F" stroke="none" fill-rule="evenodd"></path></svg>
